comfy-cool.svg

<svg height="148" viewBox="0 0 128 111" width="128pt" xmlns="http://www.w3.org/2000/svg"><g stroke-width=".094"><path d="m44.87 3.86c13.13-3.7 27.47-3.55 40.41.84 13.89 4.76 24.8 16.08 30.74 29.32 6.83 14.8 9.11 31.26 9.34 47.44-.33.4-1.01 1.2-1.34 1.6-4.87 5.5-11.4 9.08-18 12.07-1.21-3.29-2.57-6.52-4.06-9.69-1.08-2.53-2.52-4.89-4.31-6.97.19-2.88-.2-6.01 1.18-8.66 1.92-2.69 4.63-4.7 6.66-7.31 5.08-6.46 7.11-15.25 5.25-23.26-1.75-7.89-6.96-14.84-13.85-19-13.37-8.42-32.57-6.5-43.53 5.09-6.86 6.92-9.78 17.41-7.35 26.87 2.99 11.98 13.98 20.89 26 22.71 5.42 1.2 11.55.3 16.27 3.77 3.1 2.22 6.16 4.88 7.76 8.43 1.25 4.46-1.14 9.47-4.89 12-2.9 1.56-6.27 1.78-9.47 2.26-20.81 2.55-42.73.85-61.9-8.14-6.71-3.01-12.2-7.97-17.11-13.33l-.3-.46c.03-16.57 3.06-33.51 10.66-48.36 6.43-12.83 17.92-23.26 31.84-27.22z" fill="#ff873a" stroke="#ff873a"/><path d="m53.36 25.33c10.96-11.59 30.16-13.51 43.53-5.09 6.89 4.16 12.1 11.11 13.85 19 1.86 8.01-.17 16.8-5.25 23.26-2.03 2.61-4.74 4.62-6.66 7.31-1.38 2.65-.99 5.78-1.18 8.66-1.56-1.65-3.27-3.18-5.2-4.38.68-3.9 1.65-8.03 4.79-10.74 4.62-4.28 8.29-9.97 8.54-16.42.57-5.37-1.68-10.4-3.56-15.29-4.77-4.53-10.12-8.85-16.71-10.28-10.14-2.51-21.74.5-28.74 8.44-5.09 5.51-7.37 13.59-5.43 20.9 2.06 8.43 9.05 15.04 17.13 17.78 7.53 2.73 16.16 1.15 23.27 5.21 3.11 2.75 6.32 5.55 8.42 9.2 2.7 3.6.73 8.16.3 12.17-1.41 4.44-3.24 9.54-7.85 11.55-10.08 3.72-21.04 2.98-31.59 3.02-8.15.13-16.11-1.8-24.17-2.69-10.6-2.07-20.54-7.12-28.75-14.11-3.57-2.7-6.2-6.51-7.58-10.75.45-.61 1.35-1.84 1.8-2.45l.35.27c4.91 5.36 10.4 10.32 17.11 13.33 19.17 8.99 41.09 10.69 61.9 8.14 3.2-.48 6.57-.7 9.47-2.26 3.75-2.53 6.14-7.54 4.89-12-1.6-3.55-4.66-6.21-7.76-8.43-4.72-3.47-10.85-2.57-16.27-3.77-12.02-1.82-23.01-10.73-26-22.71-2.43-9.46.49-19.95 7.35-26.87z" fill="#fffefe" stroke="#fffefe"/><path d="m124.02 83.06c.35-.27 1.05-.79 1.4-1.05 2.63 3.4-.18 7.22-2.19 10.09-3.99 4.56-9.35 8.11-15.24 9.64-3.67.72-5.73-2.89-7.5-5.42.95-3.55 1.36-7.22 1.47-10.88 1.49 3.17 2.85 6.4 4.06 9.69 6.6-2.99 13.13-6.57 18-12.07z" fill="#fffefe" stroke="#fffefe"/><path d="m56.77 29.8c7-7.94 18.6-10.95 28.74-8.44 6.59 1.43 11.94 5.75 16.71 10.28 1.88 4.89 4.13 9.92 3.56 15.29-.25 6.45-3.92 12.14-8.54 16.42-3.14 2.71-4.11 6.84-4.79 10.74l-.71-.4c-7.11-4.06-15.74-2.48-23.27-5.21-8.08-2.74-15.07-9.35-17.13-17.78-1.94-7.31.34-15.39 5.43-20.9m13.2 5.67c-4.07-.03-8.08.79-12.11 1.3l-.69.56c-1.28.12-2.55.24-3.83.36.08.49.25 1.48.33 1.98 3.53 2.78 4.46 7.39 7.05 10.88 4.29.1 8.49-.86 12.52-2.3 1.42-3.44 2.14-7.1 2.44-10.8 1.52-.06 3.04-.11 4.56-.15 1.29 3.34 2.7 6.73 5.3 9.29 4.33.14 8.64-.48 12.63-2.24.34-1.11.69-2.22 1.04-3.33.11-2.66.26-5.37 1.3-7.86-.54-.68-1.08-1.35-1.63-2.02-9.94-.58-19.01 4.75-28.91 4.33m10.1 22.28c-4.43.61-8.55-1.32-12.37-3.28-.71 1.37-2.25 3.02-.27 4.09 8.85 6.17 22.56 3.53 28.49-5.54-.92-.73-1.85-1.46-2.77-2.18-3.53 3.55-7.87 6.8-13.08 6.91z" fill="#fcc21b" stroke="#fcc21b"/><g fill="#292f33" stroke="#292f33"><path d="m69.97 35.47c9.9.42 18.97-4.91 28.91-4.33.55.67 1.09 1.34 1.63 2.02-1.04 2.49-1.19 5.2-1.3 7.86-.35 1.11-.7 2.22-1.04 3.33-3.99 1.76-8.3 2.38-12.63 2.24-2.6-2.56-4.01-5.95-5.3-9.29-1.52.04-3.04.09-4.56.15-.3 3.7-1.02 7.36-2.44 10.8-4.03 1.44-8.23 2.4-12.52 2.3-2.59-3.49-3.52-8.1-7.05-10.88-.08-.5-.25-1.49-.33-1.98 1.28-.12 2.55-.24 3.83-.36l.69-.56c4.03-.51 8.04-1.33 12.11-1.3z"/><path d="m80.07 57.75c5.21-.11 9.55-3.36 13.08-6.91.92.72 1.85 1.45 2.77 2.18-5.93 9.07-19.64 11.71-28.49 5.54-1.98-1.07-.44-2.72.27-4.09 3.82 1.96 7.94 3.89 12.37 3.28z"/><path d="m91.74 73.69.71.4c1.93 1.2 3.64 2.73 5.2 4.38 1.79 2.08 3.23 4.44 4.31 6.97-.11 3.66-.52 7.33-1.47 10.88l-.03-1.26c.43-4.01 2.4-8.57-.3-12.17-2.1-3.65-5.31-6.45-8.42-9.2z"/></g></g></svg>

<svg width="128pt" height="148" viewBox="0 0 128 111" version="1.1" xmlns="http://www.w3.org/2000/svg"><g id="#ff873aff"><path fill="#ff873a" stroke="#ff873a" stroke-width=".094" opacity="1" d="M 44.87 3.86 C 58.00 0.16 72.34 0.31 85.28 4.70 C 99.17 9.46 110.08 20.78 116.02 34.02 C 122.85 48.82 125.13 65.28 125.36 81.46 C 125.03 81.86 124.35 82.66 124.02 83.06 C 119.15 88.56 112.62 92.14 106.02 95.13 C 104.81 91.84 103.45 88.61 101.96 85.44 C 100.88 82.91 99.44 80.55 97.65 78.47 C 97.84 75.59 97.45 72.46 98.83 69.81 C 100.75 67.12 103.46 65.11 105.49 62.50 C 110.57 56.04 112.60 47.25 110.74 39.24 C 108.99 31.35 103.78 24.40 96.89 20.24 C 83.52 11.82 64.32 13.74 53.36 25.33 C 46.50 32.25 43.58 42.74 46.01 52.20 C 49.00 64.18 59.99 73.09 72.01 74.91 C 77.43 76.11 83.56 75.21 88.28 78.68 C 91.38 80.90 94.44 83.56 96.04 87.11 C 97.29 91.57 94.90 96.58 91.15 99.11 C 88.25 100.67 84.88 100.89 81.68 101.37 C 60.87 103.92 38.95 102.22 19.78 93.23 C 13.07 90.22 7.58 85.26 2.67 79.90 L 2.37 79.44 C 2.40 62.87 5.43 45.93 13.03 31.08 C 19.46 18.25 30.95 7.82 44.87 3.86 Z"/></g><g id="#fffefeff"><path fill="#fffefe" stroke="#fffefe" stroke-width=".094" opacity="1" d="M 53.36 25.33 C 64.32 13.74 83.52 11.82 96.89 20.24 C 103.78 24.40 108.99 31.35 110.74 39.24 C 112.60 47.25 110.57 56.04 105.49 62.50 C 103.46 65.11 100.75 67.12 98.83 69.81 C 97.45 72.46 97.84 75.59 97.65 78.47 C 96.09 76.82 94.38 75.29 92.45 74.09 C 93.13 70.19 94.10 66.06 97.24 63.35 C 101.86 59.07 105.53 53.38 105.78 46.93 C 106.35 41.56 104.10 36.53 102.22 31.64 C 97.45 27.11 92.10 22.79 85.51 21.36 C 75.37 18.85 63.77 21.86 56.77 29.80 C 51.68 35.31 49.40 43.39 51.34 50.70 C 53.40 59.13 60.39 65.74 68.47 68.48 C 76.00 71.21 84.63 69.63 91.74 73.69 C 94.85 76.44 98.06 79.24 100.16 82.89 C 102.86 86.49 100.89 91.05 100.46 95.06 C 99.05 99.50 97.22 104.60 92.61 106.61 C 82.53 110.33 71.57 109.59 61.02 109.63 C 52.87 109.76 44.91 107.83 36.85 106.94 C 26.25 104.87 16.31 99.82 8.10 92.83 C 4.53 90.13 1.90 86.32 0.52 82.08 C 0.97 81.47 1.87 80.24 2.32 79.63 L 2.67 79.90 C 7.58 85.26 13.07 90.22 19.78 93.23 C 38.95 102.22 60.87 103.92 81.68 101.37 C 84.88 100.89 88.25 100.67 91.15 99.11 C 94.90 96.58 97.29 91.57 96.04 87.11 C 94.44 83.56 91.38 80.90 88.28 78.68 C 83.56 75.21 77.43 76.11 72.01 74.91 C 59.99 73.09 49.00 64.18 46.01 52.20 C 43.58 42.74 46.50 32.25 53.36 25.33 Z"/><path fill="#fffefe" stroke="#fffefe" stroke-width=".094" opacity="1" d="M 124.02 83.06 C 124.37 82.79 125.07 82.27 125.42 82.01 C 128.05 85.41 125.24 89.23 123.23 92.10 C 119.24 96.66 113.88 100.21 107.99 101.74 C 104.32 102.46 102.26 98.85 100.49 96.32 C 101.44 92.77 101.85 89.10 101.96 85.44 C 103.45 88.61 104.81 91.84 106.02 95.13 C 112.62 92.14 119.15 88.56 124.02 83.06 Z"/></g><g id="#fcc21bff"><path fill="#fcc21b" stroke="#fcc21b" stroke-width=".094" opacity="1" d="M 56.77 29.80 C 63.77 21.86 75.37 18.85 85.51 21.36 C 92.10 22.79 97.45 27.11 102.22 31.64 C 104.10 36.53 106.35 41.56 105.78 46.93 C 105.53 53.38 101.86 59.07 97.24 63.35 C 94.10 66.06 93.13 70.19 92.45 74.09 L 91.74 73.69 C 84.63 69.63 76.00 71.21 68.47 68.48 C 60.39 65.74 53.40 59.13 51.34 50.70 C 49.40 43.39 51.68 35.31 56.77 29.80 M 69.97 35.47 C 65.90 35.44 61.89 36.26 57.86 36.77 L 57.17 37.33 C 55.89 37.45 54.62 37.57 53.34 37.69 C 53.42 38.18 53.59 39.17 53.67 39.67 C 57.20 42.45 58.13 47.06 60.72 50.55 C 65.01 50.65 69.21 49.69 73.24 48.25 C 74.66 44.81 75.38 41.15 75.68 37.45 C 77.20 37.39 78.72 37.34 80.24 37.30 C 81.53 40.64 82.94 44.03 85.54 46.59 C 89.87 46.73 94.18 46.11 98.17 44.35 C 98.51 43.24 98.86 42.13 99.21 41.02 C 99.32 38.36 99.47 35.65 100.51 33.16 C 99.97 32.48 99.43 31.81 98.88 31.14 C 88.94 30.56 79.87 35.89 69.97 35.47 M 80.07 57.75 C 75.64 58.36 71.52 56.43 67.70 54.47 C 66.99 55.84 65.45 57.49 67.43 58.56 C 76.28 64.73 89.99 62.09 95.92 53.02 C 95.00 52.29 94.07 51.56 93.15 50.84 C 89.62 54.39 85.28 57.64 80.07 57.75 Z"/></g><g id="#292f33ff"><path fill="#292f33" stroke="#292f33" stroke-width=".094" opacity="1" d="M 69.97 35.47 C 79.87 35.89 88.94 30.56 98.88 31.14 C 99.43 31.81 99.97 32.48 100.51 33.16 C 99.47 35.65 99.32 38.36 99.21 41.02 C 98.86 42.13 98.51 43.24 98.17 44.35 C 94.18 46.11 89.87 46.73 85.54 46.59 C 82.94 44.03 81.53 40.64 80.24 37.30 C 78.72 37.34 77.20 37.39 75.68 37.45 C 75.38 41.15 74.66 44.81 73.24 48.25 C 69.21 49.69 65.01 50.65 60.72 50.55 C 58.13 47.06 57.20 42.45 53.67 39.67 C 53.59 39.17 53.42 38.18 53.34 37.69 C 54.62 37.57 55.89 37.45 57.17 37.33 L 57.86 36.77 C 61.89 36.26 65.90 35.44 69.97 35.47 Z"/><path fill="#292f33" stroke="#292f33" stroke-width=".094" opacity="1" d="M 80.07 57.75 C 85.28 57.64 89.62 54.39 93.15 50.84 C 94.07 51.56 95.00 52.29 95.92 53.02 C 89.99 62.09 76.28 64.73 67.43 58.56 C 65.45 57.49 66.99 55.84 67.70 54.47 C 71.52 56.43 75.64 58.36 80.07 57.75 Z"/><path fill="#292f33" stroke="#292f33" stroke-width=".094" opacity="1" d="M 91.74 73.69 L 92.45 74.09 C 94.38 75.29 96.09 76.82 97.65 78.47 C 99.44 80.55 100.88 82.91 101.96 85.44 C 101.85 89.10 101.44 92.77 100.49 96.32 L 100.46 95.06 C 100.89 91.05 102.86 86.49 100.16 82.89 C 98.06 79.24 94.85 76.44 91.74 73.69 Z"/></g></svg>
